assets/img/share.svg

<svg fill="#fa314a" xmlns="http://www.w3.org/2000/svg" viewBox="0 0 30 30" width="480" height="480"><path d="M23 3a4 4 0 00-4 4 4 4 0 00.094.836l-9.082 4.541A4 4 0 007 11a4 4 0 00-4 4 4 4 0 004 4 4 4 0 003.014-1.375l9.076 4.54A4 4 0 0019 23a4 4 0 004 4 4 4 0 004-4 4 4 0 00-4-4 4 4 0 00-3.014 1.375l-9.076-4.54A4 4 0 0011 15a4 4 0 00-.094-.834l9.082-4.541A4 4 0 0023 11a4 4 0 004-4 4 4 0 00-4-4z"/></svg>

<svg fill="#fa314a" xmlns="http://www.w3.org/2000/svg"  viewBox="0 0 30 30" width="480px" height="480px"><path d="M 23 3 A 4 4 0 0 0 19 7 A 4 4 0 0 0 19.09375 7.8359375 L 10.011719 12.376953 A 4 4 0 0 0 7 11 A 4 4 0 0 0 3 15 A 4 4 0 0 0 7 19 A 4 4 0 0 0 10.013672 17.625 L 19.089844 22.164062 A 4 4 0 0 0 19 23 A 4 4 0 0 0 23 27 A 4 4 0 0 0 27 23 A 4 4 0 0 0 23 19 A 4 4 0 0 0 19.986328 20.375 L 10.910156 15.835938 A 4 4 0 0 0 11 15 A 4 4 0 0 0 10.90625 14.166016 L 19.988281 9.625 A 4 4 0 0 0 23 11 A 4 4 0 0 0 27 7 A 4 4 0 0 0 23 3 z"/></svg>
